**kern	**silbe	**kern	**silbe	**kern	**silbe
*ICvox	*	*ICvox	*	*ICvox	*
=1	=1	=1	=1	=1	=1
*C:	*	*C:	*	*C:	*
*M4/4	*	*M4/4	*	*M4/4	*
*clefC3	*	*clefC3	*	*clefF4	*
1r	.	1r	.	1r	.
=2	=2	=2	=2	=2	=2
1r	.	1r	.	1r	.
=3	=3	=3	=3	=3	=3
1r	.	1r	.	1r	.
=4	=4	=4	=4	=4	=4
2r	.	2r	.	2r	.
4r	.	4r	.	4r	.
4e	El-	4c g	El-	4C	El-
=5	=5	=5	=5	=5	=5
4c	-vi-	4G e	-vi-	4C	-vi-
4e	-ra	4c g	-ra	4C	-ra
2r	!	2r	!	2r	!
=6	=6	=6	=6	=6	=6
2r	.	2r	.	2r	.
4r	.	4r	.	4r	.
12e	El	4c g	El	4C	El
6d	_	.	.	.	.
=7	=7	=7	=7	=7	=7
4c	vi-	4G e	vi-	4C	vi-
4e	-ra	4c g	-ra	4C	-ra
2r	!	2r	!	2r	!
=8	=8	=8	=8	=8	=8
2r	.	2r	.	2r	.
4r	.	4r	.	4r	.
4c	My	4G e	My	4C	My
=9	=9	=9	=9	=9	=9
2.e	heart's	2.c g	heart's	2.C	heart's
4e	on	4c g	on	4C	on
=10	=10	=10	=10	=10	=10
16e	fi	4B g	fi	4GG	fi
8.d	_	.	.	.	.
8d	re	8B g	re	8GG	re
8r	,	8r	,	8r	,
8r	.	8r	.	8r	.
8c	for	8A f	for	8DD	for
dq	_	4B g	El	4GG	El
12e	El	.	.	.	.
6d	_	.	.	.	.
=11	=11	=11	=11	=11	=11
4c	vi-	4G e	vi-	4CC	vi-
4e	-ra	4c g	-ra	4CC	-ra
2r	!	2r	!	2r	!
=12	=12	=12	=12	=12	=12
1r	.	1r	.	1r	.
=13	=13	=13	=13	=13	=13
4c	Eyes	1r	.	1r	.
8c	that	.	.	.	.
8B	l-	.	.	.	.
Bq	_	.	.	.	.
4c	-look	.	.	.	.
4c	like	.	.	.	.
=14	=14	=14	=14	=14	=14
8c	Hea-	1r	.	1r	.
8B	-ven	.	.	.	.
4r	.	.	.	.	.
2r	.	.	.	.	.
=15	=15	=15	=15	=15	=15
4c	Lips	1r	.	1r	.
4c	like	.	.	.	.
8c	cher-	.	.	.	.
4c	-ry	.	.	.	.
d#q	_	.	.	.	.
8e	wine	.	.	.	.
=16	=16	=16	=16	=16	=16
2r	!	1r	.	1r	.
4r	.	.	.	.	.
4c	That	.	.	.	.
=17	=17	=17	=17	=17	=17
d#q	_	1r	.	1r	.
4e	girl	.	.	.	.
4e	can	.	.	.	.
8e	sure	.	.	.	.
8d#	e-	.	.	.	.
4e	-nough	.	.	.	.
=18	=18	=18	=18	=18	=18
d#q	_	1r	.	1r	.
4e	make	.	.	.	.
8e	my	.	.	.	.
8d#	_	.	.	.	.
8e	lit-	.	.	.	.
8d#	-tle	.	.	.	.
4e	light	.	.	.	.
=19	=19	=19	=19	=19	=19
8f	shine	1r	.	1r	.
8e	_	.	.	.	.
[4d	_	.	.	.	.
4.d]	_	.	.	.	.
16e	_	.	.	.	.
16d	_	.	.	.	.
=20	=20	=20	=20	=20	=20
16e	_	1r	.	1r	.
16g	_	.	.	.	.
8r	!	.	.	.	.
4r	.	.	.	.	.
2r	.	.	.	.	.
=21	=21	=21	=21	=21	=21
fq	_	1r	.	1r	.
4g	I	.	.	.	.
8g	get	.	.	.	.
8g	a	.	.	.	.
8a	fun-	.	.	.	.
4g	-ny	.	.	.	.
8e	fee-	.	.	.	.
=22	=22	=22	=22	=22	=22
d#q	_	1r	.	1r	.
=22	=22	=22	=22	=22	=22
8e	-ling	.	.	.	.
d	_	.	.	.	.
c	_	.	.	.	.
8r	,	.	.	.	.
4r	.	.	.	.	.
2r	.	.	.	.	.
=23	=23	=23	=23	=23	=23
8g	up	1r	.	1r	.
4c	and	.	.	.	.
8e-	down	.	.	.	.
8d	_	.	.	.	.
4c	my	.	.	.	.
16A	spine	.	.	.	.
[16c	_	.	.	.	.
=24	=24	=24	=24	=24	=24
8c]	_	1r	.	1r	.
8r	,	.	.	.	.
4r	.	.	.	.	.
2r	.	.	.	.	.
=25	=25	=25	=25	=25	=25
4e	cuz	1r	.	1r	.
4e	I	.	.	.	.
d#q	_	.	.	.	.
8e	know	.	.	.	.
8d	_	.	.	.	.
4c	that	.	.	.	.
=26	=26	=26	=26	=26	=26
cq	_	1r	.	1r	.
4d	my	.	.	.	.
dq	_	.	.	.	.
4e	El-	.	.	.	.
dq	_	.	.	.	.
4e	-vi-	.	.	.	.
4d	-ra's	.	.	.	.
=27	=27	=27	=27	=27	=27
dq	_	1r	.	1r	.
8e	mine	.	.	.	.
8d	_	.	.	.	.
4c	_	.	.	.	.
2r	!	.	.	.	.
=28	=28	=28	=28	=28	=28
8r	.	2r	.	2r	.
8F	Cuz	.	.	.	.
4e	I'm	.	.	.	.
8e	sing-	4r	.	4r	.
8d#	-ing	.	.	.	.
4e	El-	4c g	El-	4C	El-
=29	=29	=29	=29	=29	=29
4c	-vi-	4G e	-vi-	4C	-vi-
4e	-ra	4c g	-ra	4C	-ra
2r	!	2r	!	2r	!
=30	=30	=30	=30	=30	=30
2r	.	2r	.	2r	.
4r	.	4r	.	4r	.
12e	El	4c g	El	4C	El
6d	_	.	.	.	.
=31	=31	=31	=31	=31	=31
4c	vi-	4G e	vi-	4C	vi-
4e	-ra	4c g	-ra	4C	-ra
2r	!	2r	!	2r	!
=32	=32	=32	=32	=32	=32
2r	.	2r	.	2r	.
4r	.	4r	.	4r	.
4c	My	4G e	My	4C	My
=33	=33	=33	=33	=33	=33
2.e	heart's	2.c g	heart's	2.C	heart's
4e	on	4c g	on	4C	on
=34	=34	=34	=34	=34	=34
16e	fi	4B g	fi	4GG	fi
8.d	_	.	.	.	.
8d	re	8B g	re	8GG	re
8r	,	8r	,	8r	,
8r	.	8r	.	8r	.
8c	for	8A f	for	8DD	for
dq	_	4B g	El	4GG	El
12e	El	.	.	.	.
6d	_	.	.	.	.
=35	=35	=35	=35	=35	=35
4c	vi-	4G e	vi-	4CC	vi-
4e	-ra	4c g	-ra	4CC	-ra
2r	!	2r	!	2r	!
=36	=36	=36	=36	=36	=36
1r	.	1r	.	1r	.
=37	=37	=37	=37	=37	=37
8e	Gid-	8c g	Gid-	8C	Gid-
8e	-dy	8c g	-dy	8C	-dy
4e	up	4c g	up	8C	up,
.	.	.	.	8GG	pa-
2r	!	2r	!	4C	-oom,
.	.	.	.	8C	pa-
.	.	.	.	8GG	-pa-
=38	=38	=38	=38	=38	=38
1r	.	1r	.	4C	-oom,
.	.	.	.	8C	pa-
.	.	.	.	8GG	-pa-
.	.	.	.	4BB-	-maow-
.	.	.	.	4BB	-maow,
=39	=39	=39	=39	=39	=39
8e	Gid-	8c g	Gid-	8C	gid-
8e	-dy	8c g	-dy	8C	-dy
4e	up	4c g	up	8C	up,
.	.	.	.	8GG	pa-
2r	!	2r	!	4C	-oom,
.	.	.	.	8C	pa-
.	.	.	.	8GG	-pa-
=40	=40	=40	=40	=40	=40
1r	.	1r	.	4C	-oom,
.	.	.	.	8C	pa-
.	.	.	.	8GG	-pa-
.	.	.	.	4BB-	-maow
.	.	.	.	4BB	maow
=41	=41	=41	=41	=41	=41
2.e	Hi-	2.c g	Hi-	2.C	hi-
4e	-ho,	4c g	-ho,	4C	-ho,
=42	=42	=42	=42	=42	=42
16e	Sil	4B g	Sil	4GG	Sil-
8.d	_	.	.	.	.
8e	ver	8B g	ver	8GG	-ver
8r	,	8r	,	8r	,
4r	.	4r	.	4r	.
4e	a-	4B g	a-	4GG	a-
=43	=43	=43	=43	=43	=43
8e	-way	8c g	-way	8CC	-way
8d	_	8A f	_	8CC	_
4c	_	4G e	_	4CC	_
2r	!	2r	!	2r	!
=44	=44	=44	=44	=44	=44
2r	.	1r	.	1r	.
4r	.	.	.	.	.
4c	To-	.	.	.	.
=45	=45	=45	=45	=45	=45
4c	-night,	1r	.	1r	.
8c	I'm	.	.	.	.
8B	_	.	.	.	.
Bq	_	.	.	.	.
4c	gon-	.	.	.	.
8A	-na	.	.	.	.
[8c	meet	.	.	.	.
=46	=46	=46	=46	=46	=46
8c]	_	1r	.	1r	.
8A	her	.	.	.	.
4r	,	.	.	.	.
8r	.	.	.	.	.
4c	at	.	.	.	.
8A	the	.	.	.	.
=47	=47	=47	=47	=47	=47
4c	Hun-	1r	.	1r	.
8A	-gry	.	.	.	.
[8c	House	.	.	.	.
4c]	_	.	.	.	.
8c	Ca-	.	.	.	.
d#q	_	.	.	.	.
8e	-fe	.	.	.	.
=48	=48	=48	=48	=48	=48
2r	!	1r	.	1r	.
4r	.	.	.	.	.
8r	.	.	.	.	.
8G	And	.	.	.	.
=49	=49	=49	=49	=49	=49
4e	I'm	1r	.	1r	.
8e	gon-	.	.	.	.
8d#	-na	.	.	.	.
4e	give	.	.	.	.
4e	her	.	.	.	.
=50	=50	=50	=50	=50	=50
d#q	_	1r	.	1r	.
4e	all	.	.	.	.
8d#	the	.	.	.	.
[8e	love	.	.	.	.
8e]	_	.	.	.	.
4e	I	.	.	.	.
8f	can	.	.	.	.
=51	=51	=51	=51	=51	=51
8e	_	1r	.	1r	.
4.d	,	.	.	.	.
8d	yes	.	.	.	.
cq	_	.	.	.	.
4d	I	.	.	.	.
16B	am	.	.	.	.
16A	_	.	.	.	.
=52	=52	=52	=52	=52	=52
8G	_	1r	.	1r	.
8r	!	.	.	.	.
4r	.	.	.	.	.
2r	.	.	.	.	.
=53	=53	=53	=53	=53	=53
fq	_	1r	.	1r	.
4g	She's	.	.	.	.
8g	gon-	.	.	.	.
8g	-na	.	.	.	.
8a	jump	.	.	.	.
4g	and	.	.	.	.
d#q	_	.	.	.	.
[8e	hol	.	.	.	.
=54	=54	=54	=54	=54	=54
16e]	_	1r	.	1r	.
8.c	ler	.	.	.	.
4r	,	.	.	.	.
8r	.	.	.	.	.
8A	cuz	.	.	.	.
4c	I	.	.	.	.
=55	=55	=55	=55	=55	=55
dq	_	1r	.	1r	.
4e-	saved	.	.	.	.
8c	up	.	.	.	.
8A	my	.	.	.	.
4c	last	.	.	.	.
8e-	two	.	.	.	.
dq	_	.	.	.	.
[8e-	dol	.	.	.	.
=56	=56	=56	=56	=56	=56
8e-]	_	1r	.	1r	.
cq	_	.	.	.	.
8c	lars	.	.	.	.
4r	!	.	.	.	.
2r	.	.	.	.	.
=57	=57	=57	=57	=57	=57
4e	We	1r	.	1r	.
8e	gon-	.	.	.	.
8d	-na	.	.	.	.
8e	search	.	.	.	.
8d	_	.	.	.	.
4c	and	.	.	.	.
=58	=58	=58	=58	=58	=58
cq	_	1r	.	1r	.
4d	find	.	.	.	.
dq	_	.	.	.	.
4e	that	.	.	.	.
dq	_	.	.	.	.
4e	prea-	.	.	.	.
4d	-cher	.	.	.	.
=59	=59	=59	=59	=59	=59
dq	_	1r	.	1r	.
8e	man	.	.	.	.
8d	_	.	.	.	.
4c	_	.	.	.	.
2r	!	.	.	.	.
=60	=60	=60	=60	=60	=60
8r	.	2r	.	2r	.
8F	And	.	.	.	.
8e	I'll	.	.	.	.
8d#	be	.	.	.	.
8e	sin-	4r	.	4r	.
8d#	-gin',	.	.	.	.
4e	El-	4c g	El-	4C	El-
=61	=61	=61	=61	=61	=61
4c	-vi-	4G e	-vi-	4C	-vi-
4e	-ra	4c g	-ra	4C	-ra
2r	!	2r	!	2r	!
=62	=62	=62	=62	=62	=62
2r	.	2r	.	2r	.
4r	.	4r	.	4r	.
4e	El	4c g	El	4C	El
=63	=63	=63	=63	=63	=63
4c	vi-	4G e	vi-	4C	vi-
4e	-ra	4c g	-ra	4C	-ra
2r	!	2r	!	2r	!
=64	=64	=64	=64	=64	=64
2r	.	2r	.	2r	.
4r	.	4r	.	4r	.
4c	My	4G e	My	4C	My
=65	=65	=65	=65	=65	=65
2.e	heart's	2.c g	heart's	2.C	heart's
4e	on	4c g	on	4C	on
=66	=66	=66	=66	=66	=66
16e	fi	4B g	fi	4GG	fi
8.d	_	.	.	.	.
8d	re	8B g	re	8GG	re
8r	,	8r	,	8r	,
8r	.	8r	.	8r	.
8c	for	8A f	for	8DD	for
dq	_	4B g	El	4GG	El
12e	El	.	.	.	.
6d	_	.	.	.	.
=67	=67	=67	=67	=67	=67
4c	vi-	4G e	vi-	4CC	vi-
4e	-ra	4c g	-ra	4CC	-ra
2r	!	2r	!	2r	!
=68	=68	=68	=68	=68	=68
1r	.	1r	.	1r	.
=69	=69	=69	=69	=69	=69
8e	Gid-	8c g	Gid-	8C	Gid-
8e	-dy	8c g	-dy	8C	-dy
4e	up	4c g	up	8C	up,
.	.	.	.	8GG	pa-
2r	!	2r	!	4C	-oom,
.	.	.	.	8C	pa-
.	.	.	.	8GG	-pa-
=70	=70	=70	=70	=70	=70
1r	.	1r	.	4C	-oom,
.	.	.	.	BBq	_
.	.	.	.	8C	pa-
.	.	.	.	8GG	-pa-
.	.	.	.	4BB-	-maow-
.	.	.	.	4BB	-maow,
=71	=71	=71	=71	=71	=71
8e	Gid-	8c g	Gid-	8C	gid-
8e	-dy	8c g	-dy	8C	-dy
4e	up	4c g	up	8C	up,
.	.	.	.	8r	.
2r	!	2r	!	4C	oom,
.	.	.	.	8C	pa-
.	.	.	.	8GG	-pa-
=72	=72	=72	=72	=72	=72
1r	.	1r	.	4C	-oom,
.	.	.	.	8C	pa-
.	.	.	.	8C	-pa-
.	.	.	.	4CC	-maow
.	.	.	.	4CC	maow
=73	=73	=73	=73	=73	=73
2.e	Hi-	2.c g	Hi-	2.CC	hi-
4e	-ho,	4c g	-ho,	4EE	-ho,
=74	=74	=74	=74	=74	=74
16e	Sil	4B g	Sil	4GG	Sil-
8.d	_	.	.	.	.
8e	ver	8B g	ver	8GG	-ver
8r	,	8r	,	8r	,
4r	.	4r	.	4r	.
4e	a-	4B g	a-	4GG	a-
=75	=75	=75	=75	=75	=75
8e	-way	8c g	-way	8CC	-way
8d	_	8A f	_	8CC	_
4c	_	4G e	_	4CC	_
2r	!	2r	!	2r	!
=76	=76	=76	=76	=76	=76
*D-:	*	*D-:	*	*D-:	*
2r	.	2r	.	2r	.
4r	.	4r	.	4r	.
e-q	_	4d- a-	El-	4D-	El-
4f	El-	.	.	.	.
=77	=77	=77	=77	=77	=77
4d-	-vi-	4A- f	-vi-	4D-	-vi-
4f	-ra	4d- a-	-ra	4D-	-ra
2r	!	2r	!	2r	!
=78	=78	=78	=78	=78	=78
2r	.	2r	.	2r	.
4r	.	4r	.	4r	.
12f	El	4d- a-	El	4D-	El
6e-	_	.	.	.	.
=79	=79	=79	=79	=79	=79
4d-	vi-	4A- f	vi-	4D-	vi-
4f	-ra	4d- a-	-ra	4D-	-ra
2r	!	2r	!	2r	!
=80	=80	=80	=80	=80	=80
2r	.	2r	.	2r	.
4r	.	4r	.	4r	.
4d-	My	4A- f	My	4D-	My
=81	=81	=81	=81	=81	=81
2.f	heart's	2.d- a-	heart's	2.D-	heart's
4f	on	4d- a-	on	4D-	on
=82	=82	=82	=82	=82	=82
16f	fi	4c a-	fi	4AA-	fi
8.e-	_	.	.	.	.
8e-	re	8c a-	re	8AA-	re
8r	,	8r	,	8r	,
8r	.	8r	.	8r	.
8d-	for	8B- g-	for	8EE-	for
e-q	_	4c a-	El	4AA-	El
12f	El	.	.	.	.
6e-	_	.	.	.	.
=83	=83	=83	=83	=83	=83
4d-	vi-	4A- f	vi-	4DD-	vi-
4f	-ra	4d- a-	-ra	4DD-	-ra
2r	!	2r	!	2r	!
=84	=84	=84	=84	=84	=84
1r	.	1r	.	1r	.
=85	=85	=85	=85	=85	=85
8f	Gid-	8d- a-	Gid-	8D-	Gid-
8f	-dy	8d- a-	-dy	8D-	-dy
4f	up	4d- a-	up	8D-	up,
.	.	.	.	8AA-	pa-
2r	!	2r	!	4D-	-oom,
.	.	.	.	8D-	pa-
.	.	.	.	8AA-	-pa-
=86	=86	=86	=86	=86	=86
1r	.	1r	.	4D-	-oom,
.	.	.	.	Cq	_
.	.	.	.	8D-	pa-
.	.	.	.	8AA-	-pa-
.	.	.	.	4C-	-maow-
.	.	.	.	4C	-maow,
=87	=87	=87	=87	=87	=87
8f	Gid-	8d- a-	Gid-	8D-	gid-
8f	-dy	8d- a-	-dy	8D-	-dy
4f	up	4d- a-	up	8D-	up,
.	.	.	.	8r	pa-
2r	!	2r	!	4DD-	-oom,
.	.	.	.	8DD-	pa-
.	.	.	.	8GGG-	-pa-
=88	=88	=88	=88	=88	=88
1r	.	1r	.	4DD-	-oom,
.	.	.	.	8DD-	pa-
.	.	.	.	8AAA-	-pa-
.	.	.	.	4CC-	-maow
.	.	.	.	4CC	maow
=89	=89	=89	=89	=89	=89
2.f	Hi-	2.d- a-	Hi-	2.DD-	hi-
4f	-ho,	4d- a-	-ho,	4FF	-ho,
=90	=90	=90	=90	=90	=90
16f	Sil	4c a-	Sil	4AA-	Sil-
8.e-	_	.	.	.	.
8f	ver	8c a-	ver	8AA-	-ver
8r	,	8r	,	8r	,
4r	.	4r	.	4r	.
4f	a-	4c a-	a-	4AA-	a-
=91	=91	=91	=91	=91	=91
8f	-way	8d- a-	-way	8DD-	-way
8e-	_	8B- g-	_	8DD-	_
4d-	_	4A- f	_	4DD-	_
2r	!	2r	!	2r	!
=92	=92	=92	=92	=92	=92
*D:	*	*D:	*	*D:	*
2r	.	2r	.	2r	.
4r	.	4r	.	4r	.
eq	_	4d a	El-	4DD	El-
4f#	El-	.	.	.	.
=93	=93	=93	=93	=93	=93
4d	-vi-	4A f#	-vi-	4DD	-vi-
4f#	-ra	4d a	-ra	4DD	-ra
2r	!	2r	!	8r	!
.	.	.	.	4.AAA	Yeah
=94	=94	=94	=94	=94	=94
2r	.	2r	.	2.DD	,
4r	.	4r	.	.	.
12f#	El	4d a	El	4D	El
6e	_	.	.	.	.
=95	=95	=95	=95	=95	=95
4d	vi-	4A f#	vi-	4D	vi-
4f#	-ra	4d a	-ra	4D	-ra
2r	!	2r	!	2r	!
=96	=96	=96	=96	=96	=96
2r	.	2r	.	2r	.
4r	.	4r	.	4r	.
4d	My	4A f#	My	4DD	My
=97	=97	=97	=97	=97	=97
2.f#	heart's	2.d a	heart's	2.DD	heart's
4f#	on	4d a	on	4FF#	on
=98	=98	=98	=98	=98	=98
16f#	fi	4c# a	fi	4AA	fi
8.e	_	.	.	.	.
8e	re	8c# a	re	8AA	re
8r	,	8r	,	8r	,
8r	.	8r	.	8r	.
8d	for	8B g	for	8FF#	for
eq	_	4c# a	El	4AA	El
12f#	El	.	.	.	.
6e	_	.	.	.	.
=99	=99	=99	=99	=99	=99
4d	vi-	4A f#	vi-	4DD	vi-
4f#	-ra	4d a	-ra	4DD	-ra
2r	!	2r	!	2r	!
=100	=100	=100	=100	=100	=100
1r	.	1r	.	1r	.
=101	=101	=101	=101	=101	=101
8f#	Gid-	8d a	Gid-	8DD	Gid-
8f#	-dy	8d a	-dy	8DD	-dy
4f#	up	4d a	up	8DD	up,
.	.	.	.	8AAA	pa-
2r	!	2r	!	4DD	-oom,
.	.	.	.	8DD	pa-
.	.	.	.	8AAA	-pa-
=102	=102	=102	=102	=102	=102
1r	.	1r	.	4DD	-oom,
.	.	.	.	CC#q	_
.	.	.	.	8DD	pa-
.	.	.	.	8BBB	-pa-
.	.	.	.	4CC	-maow-
.	.	.	.	4CC#	-maow,
=103	=103	=103	=103	=103	=103
8f#	Gid-	8d a	Gid-	8DD	gid-
8f#	-dy	8d a	-dy	8DD	-dy
4f#	up	4d a	up	8DD	up,
.	.	.	.	8AAA	pa-
2r	!	2r	!	4DD	-oom,
.	.	.	.	8DD	pa-
.	.	.	.	8AAA	-pa-
=104	=104	=104	=104	=104	=104
1r	.	1r	.	4DD	-oom,
.	.	.	.	CC#q	_
.	.	.	.	8DD	pa-
.	.	.	.	8BBB	-pa-
.	.	.	.	4CC	-maow
.	.	.	.	4CC#	maow
=105	=105	=105	=105	=105	=105
2.f#	Hi-	2.d a	Hi-	2.DD	hi-
4f#	-ho,	4d a	-ho,	4FF#	-ho,
=106	=106	=106	=106	=106	=106
16f#	Sil	4c# a	Sil	4AA	Sil-
8.e	_	.	.	.	.
8f#	ver	8c# a	ver	8AA	-ver
8r	,	8r	,	8r	,
4r	.	4r	.	4r	.
4f#	a-	4c# a	a-	4AA	a-
=107	=107	=107	=107	=107	=107
8f#	-way	8d a	-way	8DD	-way
8e	_	8B g	_	8DD	_
4d	_	4A f#	_	4DD	_
2r	!	2r	!	2r	!
=108	=108	=108	=108	=108	=108
*E-:	*	*E-:	*	*E-:	*
2r	.	2r	.	2r	.
4r	.	4r	.	4r	.
fq	_	4e- b-	El-	4EE-	El-
4g	El-	.	.	.	.
=109	=109	=109	=109	=109	=109
4e-	-vi-	4B- g	-vi-	4EE-	-vi-
4g	-ra	4e- b-	-ra	4EE-	-ra
2r	!	2r	!	8r	!
.	.	.	.	4.BBB-	Yeah
=110	=110	=110	=110	=110	=110
2r	.	2r	.	2.EE-	,
4r	.	4r	.	.	.
12g	El	4e- b-	El	4E-	El
6f	_	.	.	.	.
=111	=111	=111	=111	=111	=111
4e-	vi-	4B- g	vi-	4E-	vi-
4g	-ra	4e- b-	-ra	4E-	-ra
2r	!	2r	!	2r	!
=112	=112	=112	=112	=112	=112
2r	.	2r	.	2r	.
4r	.	4r	.	4r	.
4e-	My	4B- g	My	4EE-	My
=113	=113	=113	=113	=113	=113
2.g	heart's	2.e- b-	heart's	2.EE-	heart's
4g	on	4e- b-	on	4GG	on
=114	=114	=114	=114	=114	=114
16g	fi	4d b-	fi	4BB-	fi
8.f	_	.	.	.	.
8f	re	8d b-	re	8BB-	re
8r	,	8r	,	8r	,
8r	.	8r	.	8r	.
8e-	for	8c a-	for	8GG	for
fq	_	4d b-	El	4BB-	El
12g	El	.	.	.	.
6f	_	.	.	.	.
=115	=115	=115	=115	=115	=115
4e-	vi-	4B- g	vi-	4EE-	vi-
4g	-ra	4e- b-	-ra	4EE-	-ra
2r	!	2r	!	2r	!
=116	=116	=116	=116	=116	=116
1r	.	1r	.	1r	.
=117	=117	=117	=117	=117	=117
1r	.	1r	.	1r	.
=118	=118	=118	=118	=118	=118
1r	.	1r	.	1r	.
=119	=119	=119	=119	=119	=119
1r	.	1r	.	1r	.
=120	=120	=120	=120	=120	=120
1r	.	1r	.	1r	.
=121	=121	=121	=121	=121	=121
1r	.	1r	.	1r	.
=122	=122	=122	=122	=122	=122
1r	.	1r	.	1r	.
=123	=123	=123	=123	=123	=123
1r	.	1r	.	1r	.
*-	*-	*-	*-	*-	*-
!!!ENC: Nathaniel Condit-Schultz